icons/lines/ruler-pen.svg

<svg xmlns="http://www.w3.org/2000/svg" width="24" height="24" viewBox="0 0 24 24" fill="none" stroke="currentColor" stroke-width="2" stroke-linecap="round" stroke-linejoin="round" >
  <path d="M21.4702 19V5C21.4702 3 20.4702 2 18.4702 2H14.4702C12.4702 2 11.4702 3 11.4702 5V19C11.4702 21 12.4702 22 14.4702 22H18.4702C20.4702 22 21.4702 21 21.4702 19Z"/>
  <path d="M11.4702 6H16.4702"/>
  <path d="M11.4702 18H15.4702"/>
  <path d="M11.4702 13.95L16.4702 14"/>
  <path d="M11.4702 10H14.4702"/>
  <path d="M5.48978 2C3.85978 2 2.52979 3.33 2.52979 4.95V17.91C2.52979 18.36 2.71979 19.04 2.94979 19.43L3.76979 20.79C4.70979 22.36 6.25979 22.36 7.19979 20.79L8.01979 19.43C8.24979 19.04 8.43979 18.36 8.43979 17.91V4.95C8.43979 3.33 7.10978 2 5.48978 2Z"/>
  <path d="M8.43979 7H2.52979"/>
  </svg>

<svg xmlns="http://www.w3.org/2000/svg" width="24" height="24" viewBox="0 0 24 24" fill="none" stroke="currentColor" stroke-width="2" stroke-linecap="round" stroke-linejoin="round">
  <path d="M11.47 10h3" />
  <path d="m11.47 13.95 5 .05" />
  <path d="M11.47 18h4" />
  <path d="M11.47 6h5" />
  <path d="M21.47 5q0-3-3-3h-4q-3 0-3 3v14q0 3 3 3h4q3 0 3-3z" />
  <path d="M8.44 4.95a3 3 0 0 0-5.91 0v12.96c0 .45.19 1.13.42 1.52l.82 1.36c.94 1.57 2.49 1.57 3.43 0l.82-1.36c.23-.39.42-1.07.42-1.52z" />
  <path d="M8.44 7H2.53" />
</svg>
